X:15
T:Sun Beams, The
M: C|
L:1/8
B:Thompson's Compleat Collection of 200 Favourite Country Dances, vol. 3 (London, 1773)
Z:Transcribed and edited by Flynn Titford-Mock, 2007
Z:abc's:AK/Fiddler's Companion
K:F
c | fcAd cAFE | DdBG cAFc | fcAd cAFE | DdBG F3::c | fcfa gecf | gegb agfg |
afda gecg | afed c3B | Acfg ag/f/ gA | Bdga bgec | fcAd cAFE | DdBG F3 :|

